X:9527
T:Les navetières
A:ILE DE FRANCE
O:FRANCE
M:2/4
L:1/8
Q:1/4=160
K:D
A2|ddcA|eeA2|
ddcA|d2A2|ddcA|ddF2|
BGAA|D2||AA|
ee/2d/2cA|ddFF|
BB/2G/2AA|D2||


